X:1
T:Red Hook, 87.87.87 D
T:Red Hook, 87.87.87 D
T:Theodore Edson Perkins, 1868
T:Public Domain Courtesy of the Cyber Hymnal™
C:Theodore Edson Perkins, 1868
Z:Public Domain
Z:Courtesy of the Cyber Hymnal™
%%score ( 1 2 ) ( 3 4 )
L:1/8
Q:1/4=108
M:4/4
K:Ab
V:1 treble 
V:2 treble 
V:3 bass 
V:4 bass 
V:1
 [CA]2 [CA]2 [CA]3 [DB] | [Ec]2 [DB]2 [CA]2 [CE]2 | [DF]3 [DF] E2 [EA]2 | [EG]2 [EA]2 [EB]4 | %4
 [CA]2 [CA]2 [CA]3 [DB] | [Ec]2 [DB]2 [CA]2 [CE]2 | [DF]2 [FA]2 [Fd]2 [Ec]2 | [Ec]2 [DB]2 [CA]4 | %8
 [GB]2 [GB]2 [GB]3 [Ac] | [Bd]2 [Ac]2 [Ac]2 [GB]2 | [Ac]2 [Ee]2 [Ed]2 [Ec]2 | [GB]2 [FA]2 (G3 A) | %12
 [GB]2 [GB]2 [GB]3 [Ac] | [Gd]2 [Ac]2 [Ac]2 [GB]2 | [Ge]2 [Ac]2 [GB]3 [FA] | [EG]2 [=DF]2 E4 | %16
 [CA]2 [CA]2 [CA]3 [DB] | [Ec]2 [DB]2 [CA]2 [CE]2 | [DF]3 [DF] E2 [EA]2 | [EG]2 [EA]2 [EB]4 | %20
 [CA]2 [CA]2 [CA]3 [DB] | [Ec]2 [DB]2 [CA]2 [CE]2 | [DF]2 [FA]2 [Fd]2 [Ec]2 | [Ec]2 [DB]2 [CA]4 |] %24
V:2
 x8 | x8 | x4 E2 x2 | x8 | x8 | x8 | x8 | x8 | x8 | x8 | x8 | x4 E4 | x8 | x8 | x8 | x4 E4 | x8 | %17
 x8 | x4 E2 x2 | x8 | x8 | x8 | x8 | x8 |] %24
V:3
 [A,,A,]2 [A,,A,]2 [A,,A,]3 [A,,A,] | [A,,A,]2 [A,,A,]2 [A,,A,]2 [A,,A,]2 | %2
 [D,A,]3 [D,A,] [C,A,]2 [A,,C]2 | [E,B,]2 (CA,) [E,G,]4 | [A,,A,]2 [A,,A,]2 [A,,A,]3 [A,,A,] | %5
 [A,,A,]2 [A,,A,]2 [A,,A,]2 [A,,A,]2 | [D,A,]2 [D,A,]2 [D,A,]2 [E,A,]2 | [E,A,]2 [E,G,]2 [A,,A,]4 | %8
 [E,E]2 [E,E]2 [E,E]3 [E,E] | [G,E]2 [A,E]2 [E,E]2 [E,E]2 | [A,E]2 [A,C]2 [G,B,]2 A,2 | %11
 [E,B,]2 [E,B,]2 (B,3 C) | [E,D]2 [E,D]2 [E,D]3 [E,C] | [E,B,]2 (A,C) [E,E]2 [E,E]2 | %14
 [E,B,]2 [E,E]2 [E,E]3 [A,C] | B,2 [B,,A,]2 [E,G,]4 | [A,,A,]2 [A,,A,]2 [A,,A,]3 [A,,A,] | %17
 [A,,A,]2 [A,,A,]2 [A,,A,]2 [A,,A,]2 | [D,A,]3 [D,A,] [C,A,]2 [A,,C]2 | [E,B,]2 (CA,) [E,G,]4 | %20
 [A,,A,]2 [A,,A,]2 [A,,A,]3 [A,,A,] | [A,,A,]2 [A,,A,]2 [A,,A,]2 [A,,A,]2 | %22
 [D,A,]2 [D,A,]2 [D,A,]2 [E,A,]2 | [E,A,]2 [E,G,]2 [A,,A,]4 |] %24
V:4
 x8 | x8 | x8 | x2 E,2 x4 | x8 | x8 | x8 | x8 | x8 | x8 | x6 A,2 | x4 E,4 | x8 | x2 E,2 x4 | x8 | %15
 B,2 x6 | x8 | x8 | x8 | x2 E,2 x4 | x8 | x8 | x8 | x8 |] %24

